X:1808
T:Bourr\'ee \`a Durin
R:Bourr\'ee
O:France
M:2/4
C:Serge Durin
K:Gm
d4^c2d2|B6A2|G3A B2G2|1A2D2 E2D2:|2ABABA4::\
D3=E ^F2D2|G^FGA B2G2|^F=EFG A2F2|1 G2B2 A2G2 :|2G8:|


